X:144
T:Charlie Mulvihill's
M:6/8
L:1/8
R:jig
K:G
G/A/|~B3 AGE|DB,D EDB,|G,B,D GBd|edB AGA|\
~B3 AGE|DB,D EDB,|G,B,D ~E3|FEF G2::
A|BAB dBG|~c3 edc|~B3 dcd|edB AGA|\
~B3 AGE|DB,D EDB,|G,B,D ~E3|FEF G2:|
